packages/core/src/svgs/quint.svg

<svg width="24" height="24" viewBox="0 0 24 24" fill="none" xmlns="http://www.w3.org/2000/svg">
<g clip-path="url(#clip0_31_16767)">
<path d="M0 0H24V24H0V0Z" fill="#F0F3FA"/>
<path d="M16.2856 16.2856V16.7142H18.8571L18.4799 16.2856H16.2856Z" fill="#12E3BC"/>
<path d="M13.2857 15.857V14.1427H7.71429V7.28557H14.5714V18.4284H18.8571V16.7141H16.2857V5.57129H6V15.857H13.2857Z" fill="#14F4C8"/>
<path d="M8.14293 13.7144L7.71436 14.1429H13.2858L12.8572 13.7144H8.14293Z" fill="url(#paint0_linear_31_16767)"/>
<path d="M8.14293 7.71422L7.71436 7.28564H14.5715L14.1429 7.71422H8.14293Z" fill="url(#paint1_linear_31_16767)"/>
<path d="M14.5714 7.28564L14.1428 7.71422V17.9999L14.5714 18.4285V7.28564Z" fill="url(#paint2_linear_31_16767)"/>
<path d="M10.2858 9.21422L7.71436 7.28564V14.1428L10.2858 12.2142V9.21422Z" fill="url(#paint3_linear_31_16767)"/>
</g>
<defs>
<linearGradient id="paint0_linear_31_16767" x1="9.41578" y1="14.0101" x2="9.4115" y2="13.8086" gradientUnits="userSpaceOnUse">
<stop stop-color="#068F82"/>
<stop offset="1" stop-color="#12E3BC"/>
</linearGradient>
<linearGradient id="paint1_linear_31_16767" x1="9.81864" y1="7.1785" x2="9.81864" y2="7.37993" gradientUnits="userSpaceOnUse">
<stop stop-color="#068F82"/>
<stop offset="1" stop-color="#12E3BC"/>
</linearGradient>
<linearGradient id="paint2_linear_31_16767" x1="14.64" y1="10.7956" x2="14.2371" y2="10.7956" gradientUnits="userSpaceOnUse">
<stop stop-color="#068F82"/>
<stop offset="1" stop-color="#12E3BC"/>
</linearGradient>
<linearGradient id="paint3_linear_31_16767" x1="7.40578" y1="10.3928" x2="10.4186" y2="10.3928" gradientUnits="userSpaceOnUse">
<stop stop-color="#068F82"/>
<stop offset="1" stop-color="#12E3BC"/>
</linearGradient>
<clipPath id="clip0_31_16767">
<rect width="24" height="24" fill="white"/>
</clipPath>
</defs>
</svg>

<svg xmlns="http://www.w3.org/2000/svg" width="24" height="24" fill="none" viewBox="0 0 24 24"><g clip-path="url(#a)"><path fill="#F0F3FA" d="M0 0h24v24H0z"/><path fill="#12E3BC" d="M16.286 16.286v.428h2.571l-.377-.428z"/><path fill="#14F4C8" d="M13.286 15.857v-1.714H7.714V7.286h6.857v11.142h4.286v-1.714h-2.571V5.571H6v10.286z"/><path fill="url(#b)" d="m8.143 13.714-.429.429h5.572l-.429-.429z"/><path fill="url(#c)" d="m8.143 7.714-.429-.428h6.858l-.43.428z"/><path fill="url(#d)" d="m14.571 7.286-.428.428V18l.428.428z"/><path fill="url(#e)" d="M10.286 9.214 7.714 7.286v6.857l2.572-1.929z"/></g><defs><linearGradient id="b" x1="9.416" x2="9.412" y1="14.01" y2="13.809" gradientUnits="userSpaceOnUse"><stop stop-color="#068F82"/><stop offset="1" stop-color="#12E3BC"/></linearGradient><linearGradient id="c" x1="9.819" x2="9.819" y1="7.178" y2="7.38" gradientUnits="userSpaceOnUse"><stop stop-color="#068F82"/><stop offset="1" stop-color="#12E3BC"/></linearGradient><linearGradient id="d" x1="14.64" x2="14.237" y1="10.796" y2="10.796" gradientUnits="userSpaceOnUse"><stop stop-color="#068F82"/><stop offset="1" stop-color="#12E3BC"/></linearGradient><linearGradient id="e" x1="7.406" x2="10.419" y1="10.393" y2="10.393" gradientUnits="userSpaceOnUse"><stop stop-color="#068F82"/><stop offset="1" stop-color="#12E3BC"/></linearGradient><clipPath id="a"><path fill="#fff" d="M0 0h24v24H0z"/></clipPath></defs></svg>
